X:71
T:Kenderbeck's Q.S. 
C:C.E. Larrabee
B:American Veteran Fifer #71 - also found in Bruce and Emmett
M:2/4
L:1/16
Q:1/8=180
K:D
|: ag|(fa)gf (eg)fe|d2d2d2 ed|(ce)dc BdcB|A2A2A2 BA|(GB)AG (FA)GF|EFGA Bcde|(fa)gf (eg)fe|d2d2d2 :|
|: AG|FAdA fdAF|EAcA ecAG|FAdf a2(ba)|gfed dcBA|FAdA fdAF|EAcA ecAG|FAdf agec |d2d2d2 :|
